(Created with emc2b post processor 2017/10/03 16:37)
(tool change to 10 mm Slot Cutter)
T2 M06 G43
G17 G90 G21
G00 Z5 S7000 M03
X-22.17 Y10.042
Z2
G01 Z-1 F100
X-2.46 Y0.415
X-30.026 Y2.012
X-22.17 Y10.042
X-23.22 Y16.119
X3.538 Y3.05
X5 Y0.755
X5 Y-2.144
X3.678 Y-3.961
X1.335 Y-4.813
X-41.284 Y-2.343
X-23.22 Y16.119
X-24.27 Y22.197
X6.999 Y6.925
X10 Y2.212
X10 Y-3.771
X6.823 Y-8.139
X2.076 Y-9.865
X-52.541 Y-6.699
X-24.27 Y22.197
X-25.32 Y28.275
X10.461 Y10.8
X15 Y3.669
X15 Y-5.397
X9.968 Y-12.316
X2.816 Y-14.917
X-60.448 Y-11.249
X-61.843 Y-9.057
X-25.32 Y28.275
X-26.37 Y34.353
X13.923 Y14.675
X20 Y5.126
X20 Y-7.024
X13.113 Y-16.493
X3.556 Y-19.969
X-63.293 Y-16.093
X-68.191 Y-8.396
X-26.37 Y34.353
G00 Z5
X-35.975 Y0.222 S7000 M03
Z1
G01 Z-2
G02 X-36.025 Y0.171 I-0.024 J-0.025
G01 X-35.975 Y0.222
X-24.228 Y19.379
X-24.188 Y19.357
G03 X-30.576 Y-4.989 I24.081 J-19.329
G01 X-47.588 Y-4.496
X-24.228 Y19.379
X-25.152 Y25.586
X-15.926 Y20.534
G03 X-23.91 Y-10.185 I15.902 J-20.53
G01 X-59.149 Y-9.164
X-25.152 Y25.586
X-26.076 Y31.793
X-5.175 Y20.347
G03 X-14.185 Y-15.47 I5.168 J-20.341
G01 X-62.205 Y-14.078
X-65.652 Y-8.661
X-26.076 Y31.793
G00 Z5
X-35.975 Y0.222
Z0
G01 Z-3
G02 X-36.025 Y0.171 I-0.024 J-0.025
G01 X-35.975 Y0.222
X-24.228 Y19.379
X-24.188 Y19.357
G03 X-30.576 Y-4.989 I24.081 J-19.329
G01 X-47.588 Y-4.496
X-24.228 Y19.379
X-25.152 Y25.586
X-15.926 Y20.534
G03 X-23.91 Y-10.185 I15.902 J-20.53
G01 X-59.149 Y-9.164
X-25.152 Y25.586
X-26.076 Y31.793
X-5.175 Y20.347
G03 X-14.185 Y-15.47 I5.168 J-20.341
G01 X-62.205 Y-14.078
X-65.652 Y-8.661
X-26.076 Y31.793
G00 Z5
X-35.975 Y0.222
Z-1
G01 Z-4
G02 X-36.025 Y0.171 I-0.024 J-0.025
G01 X-35.975 Y0.222
X-24.228 Y19.379
X-24.188 Y19.357
G03 X-30.576 Y-4.989 I24.081 J-19.329
G01 X-47.588 Y-4.496
X-24.228 Y19.379
X-25.152 Y25.586
X-15.926 Y20.534
G03 X-23.91 Y-10.185 I15.902 J-20.53
G01 X-59.149 Y-9.164
X-25.152 Y25.586
X-26.076 Y31.793
X-5.175 Y20.347
G03 X-14.185 Y-15.47 I5.168 J-20.341
G01 X-62.205 Y-14.078
X-65.652 Y-8.661
X-26.076 Y31.793
G00 Z5
X-35.975 Y0.222
Z-2
G01 Z-5
G02 X-36.025 Y0.171 I-0.024 J-0.025
G01 X-35.975 Y0.222
X-24.228 Y19.379
X-24.188 Y19.357
G03 X-30.576 Y-4.989 I24.081 J-19.329
G01 X-47.588 Y-4.496
X-24.228 Y19.379
X-25.152 Y25.586
X-15.926 Y20.534
G03 X-23.91 Y-10.185 I15.902 J-20.53
G01 X-59.149 Y-9.164
X-25.152 Y25.586
X-26.076 Y31.793
X-5.175 Y20.347
G03 X-14.185 Y-15.47 I5.168 J-20.341
G01 X-62.205 Y-14.078
X-65.652 Y-8.661
X-26.076 Y31.793
G00 Z5
X-35.975 Y0.222
Z-3
G01 Z-6
G02 X-36.025 Y0.171 I-0.024 J-0.025
G01 X-35.975 Y0.222
X-24.228 Y19.379
X-24.188 Y19.357
G03 X-30.576 Y-4.989 I24.081 J-19.329
G01 X-47.588 Y-4.496
X-24.228 Y19.379
X-25.152 Y25.586
X-15.926 Y20.534
G03 X-23.91 Y-10.185 I15.902 J-20.53
G01 X-59.149 Y-9.164
X-25.152 Y25.586
X-26.076 Y31.793
X-5.175 Y20.347
G03 X-14.185 Y-15.47 I5.168 J-20.341
G01 X-62.205 Y-14.078
X-65.652 Y-8.661
X-26.076 Y31.793
G00 Z5
X-35.975 Y0.222
Z-4
G01 Z-7
G02 X-36.025 Y0.171 I-0.024 J-0.025
G01 X-35.975 Y0.222
X-24.228 Y19.379
X-24.188 Y19.357
G03 X-30.576 Y-4.989 I24.081 J-19.329
G01 X-47.588 Y-4.496
X-24.228 Y19.379
X-25.152 Y25.586
X-15.926 Y20.534
G03 X-23.91 Y-10.185 I15.902 J-20.53
G01 X-59.149 Y-9.164
X-25.152 Y25.586
X-26.076 Y31.793
X-5.175 Y20.347
G03 X-14.185 Y-15.47 I5.168 J-20.341
G01 X-62.205 Y-14.078
X-65.652 Y-8.661
X-26.076 Y31.793
G00 Z5
X-35.975 Y0.222
Z-5
G01 Z-8
G02 X-36.025 Y0.171 I-0.024 J-0.025
G01 X-35.975 Y0.222
X-24.228 Y19.379
X-24.188 Y19.357
G03 X-30.576 Y-4.989 I24.081 J-19.329
G01 X-47.588 Y-4.496
X-24.228 Y19.379
X-25.152 Y25.586
X-15.926 Y20.534
G03 X-23.91 Y-10.185 I15.902 J-20.53
G01 X-59.149 Y-9.164
X-25.152 Y25.586
X-26.076 Y31.793
X-5.175 Y20.347
G03 X-14.185 Y-15.47 I5.168 J-20.341
G01 X-62.205 Y-14.078
X-65.652 Y-8.661
X-26.076 Y31.793
G00 Z5
X0 Y0.986 S7000 M03
Z1
G01 Z-2
G02 X0 Y-0.986 I0 J-0.986
X0 Y0.986 I0 J0.986
G01 X0 Y5.995
G02 X0 Y-5.995 I0 J-5.995
X0 Y5.995 I0 J5.995
G00 Z5
X0 Y0.986
Z0
G01 Z-3
G02 X0 Y-0.986 I0 J-0.986
X0 Y0.986 I0 J0.986
G01 X0 Y5.995
G02 X0 Y-5.995 I0 J-5.995
X0 Y5.995 I0 J5.995
G00 Z5
X0 Y0.986
Z-1
G01 Z-4
G02 X0 Y-0.986 I0 J-0.986
X0 Y0.986 I0 J0.986
G01 X0 Y5.995
G02 X0 Y-5.995 I0 J-5.995
X0 Y5.995 I0 J5.995
G00 Z5
X0 Y0.986
Z-2
G01 Z-5
G02 X0 Y-0.986 I0 J-0.986
X0 Y0.986 I0 J0.986
G01 X0 Y5.995
G02 X0 Y-5.995 I0 J-5.995
X0 Y5.995 I0 J5.995
G00 Z5
X0 Y0.986
Z-3
G01 Z-6
G02 X0 Y-0.986 I0 J-0.986
X0 Y0.986 I0 J0.986
G01 X0 Y5.995
G02 X0 Y-5.995 I0 J-5.995
X0 Y5.995 I0 J5.995
G00 Z5
X0 Y0.986
Z-4
G01 Z-7
G02 X0 Y-0.986 I0 J-0.986
X0 Y0.986 I0 J0.986
G01 X0 Y5.995
G02 X0 Y-5.995 I0 J-5.995
X0 Y5.995 I0 J5.995
G00 Z5
X0 Y0.986
Z-5
G01 Z-8
G02 X0 Y-0.986 I0 J-0.986
X0 Y0.986 I0 J0.986
G01 X0 Y5.995
G02 X0 Y-5.995 I0 J-5.995
X0 Y5.995 I0 J5.995
G00 Z5
X0 Y0.986
Z-6
G01 Z-9
G02 X0 Y-0.986 I0 J-0.986
X0 Y0.986 I0 J0.986
G01 X0 Y5.995
G02 X0 Y-5.995 I0 J-5.995
X0 Y5.995 I0 J5.995
G00 Z5
X0 Y0.986
Z-7
G01 Z-10
G02 X0 Y-0.986 I0 J-0.986
X0 Y0.986 I0 J0.986
G01 X0 Y5.995
G02 X0 Y-5.995 I0 J-5.995
X0 Y5.995 I0 J5.995
G00 Z5
X0 Y0.986
Z-8
G01 Z-11
G02 X0 Y-0.986 I0 J-0.986
X0 Y0.986 I0 J0.986
G01 X0 Y5.995
G02 X0 Y-5.995 I0 J-5.995
X0 Y5.995 I0 J5.995
G00 Z5
X0 Y0.986
Z-9
G01 Z-12
G02 X0 Y-0.986 I0 J-0.986
X0 Y0.986 I0 J0.986
G01 X0 Y5.995
G02 X0 Y-5.995 I0 J-5.995
X0 Y5.995 I0 J5.995
G00 Z5
(plan -8)
X-22.404 Y5.198 S7000 M03
Z1
G01 Z-2
G02 X-20.456 Y4.746 I0.974 J-0.226
G03 X0 Y-21 I20.456 J-4.746
X9.246 Y18.854 I0 J21
X-20.456 Y4.746 I-9.246 J-18.854
G02 X-22.404 Y5.198 I-0.974 J0.226
G01 Z-3
G02 X-20.456 Y4.746 I0.974 J-0.226
G03 X0 Y-21 I20.456 J-4.746
X9.246 Y18.854 I0 J21
X-20.456 Y4.746 I-9.246 J-18.854
G02 X-22.404 Y5.198 I-0.974 J0.226
G01 Z-4
G02 X-20.456 Y4.746 I0.974 J-0.226
G03 X0 Y-21 I20.456 J-4.746
X9.246 Y18.854 I0 J21
X-20.456 Y4.746 I-9.246 J-18.854
G02 X-22.404 Y5.198 I-0.974 J0.226
G01 Z-5
G02 X-20.456 Y4.746 I0.974 J-0.226
G03 X0 Y-21 I20.456 J-4.746
X9.246 Y18.854 I0 J21
X-20.456 Y4.746 I-9.246 J-18.854
G02 X-22.404 Y5.198 I-0.974 J0.226
G01 Z-6
G02 X-20.456 Y4.746 I0.974 J-0.226
G03 X0 Y-21 I20.456 J-4.746
X9.246 Y18.854 I0 J21
X-20.456 Y4.746 I-9.246 J-18.854
G02 X-22.404 Y5.198 I-0.974 J0.226
G01 Z-7
G02 X-20.456 Y4.746 I0.974 J-0.226
G03 X0 Y-21 I20.456 J-4.746
X9.246 Y18.854 I0 J21
X-20.456 Y4.746 I-9.246 J-18.854
G02 X-22.404 Y5.198 I-0.974 J0.226
G01 Z-8
G02 X-20.456 Y4.746 I0.974 J-0.226
G03 X0 Y-21 I20.456 J-4.746
X9.246 Y18.854 I0 J21
X-20.456 Y4.746 I-9.246 J-18.854
G02 X-22.404 Y5.198 I-0.974 J0.226
G00 Z5
G90
(outline)
X-31.061 Y-23 S7000 M03
Z-6
G01 Z-9
G02 X-31.061 Y-21 I0 J1
G01 X0 Y-21
G03 X9.246 Y18.854 I0 J21
G01 X-16.041 Y31.256
X-22.524 Y37.74
G03 X-29.595 Y37.74 I-3.535 J-3.535
G01 X-33.131 Y34.204
X-69.193 Y-1.857
X-72.729 Y-5.393
G03 X-72.729 Y-12.464 I3.535 J-3.535
G01 X-65.658 Y-19.535
G03 X-62.122 Y-21 I3.535 J3.535
G01 X-31.061 Y-21
G02 X-31.061 Y-23 I0 J-1
G01 Z-10
G02 X-31.061 Y-21 I0 J1
G01 X0 Y-21
G03 X9.246 Y18.854 I0 J21
G01 X-16.041 Y31.256
X-22.524 Y37.74
G03 X-29.595 Y37.74 I-3.535 J-3.535
G01 X-33.131 Y34.204
X-69.193 Y-1.857
X-72.729 Y-5.393
G03 X-72.729 Y-12.464 I3.535 J-3.535
G01 X-65.658 Y-19.535
G03 X-62.122 Y-21 I3.535 J3.535
G01 X-31.061 Y-21
G02 X-31.061 Y-23 I0 J-1
G01 Z-11
G02 X-31.061 Y-21 I0 J1
G01 X0 Y-21
G03 X9.246 Y18.854 I0 J21
G01 X-16.041 Y31.256
X-22.524 Y37.74
G03 X-29.595 Y37.74 I-3.535 J-3.535
G01 X-33.131 Y34.204
X-69.193 Y-1.857
X-72.729 Y-5.393
G03 X-72.729 Y-12.464 I3.535 J-3.535
G01 X-65.658 Y-19.535
G03 X-62.122 Y-21 I3.535 J3.535
G01 X-31.061 Y-21
G02 X-31.061 Y-23 I0 J-1
G01 Z-12
G02 X-31.061 Y-21 I0 J1
G01 X0 Y-21
G03 X9.246 Y18.854 I0 J21
G01 X-16.041 Y31.256
X-22.524 Y37.74
G03 X-29.595 Y37.74 I-3.535 J-3.535
G01 X-33.131 Y34.204
X-69.193 Y-1.857
X-72.729 Y-5.393
G03 X-72.729 Y-12.464 I3.535 J-3.535
G01 X-65.658 Y-19.535
G03 X-62.122 Y-21 I3.535 J3.535
G01 X-31.061 Y-21
G02 X-31.061 Y-23 I0 J-1
G00 Z5
(tool change to 4 mm Slot Cutter)
T1 M06 G43
G90
X-29.595 Y25.011 S7000 M03
Z-6
G01 Z-9
X-28.181 Y23.597
X-58.586 Y-6.806
X-60 Y-5.392
X-29.595 Y25.011
X-29.595 Y27.84
X-27.474 Y25.719
X-24.008 Y22.253
G03 X-26.767 Y22.183 I-1.342 J-1.49
G01 X-57.172 Y-8.221
G03 X-57.241 Y-10.98 I1.418 J-1.415
G01 X-62.829 Y-5.393
X-29.595 Y27.84
G00 Z5
T0 M06 M02
